openframe-frontend-core/src/components/icons-v2/brand-logos/android.svg

<svg width="24" height="24" viewBox="0 0 24 24" fill="none" xmlns="http://www.w3.org/2000/svg">
<path d="M7.37549 21.9995V18.9995C7.37575 18.3784 7.87933 17.8745 8.50049 17.8745C9.12142 17.8748 9.62523 18.3786 9.62549 18.9995V21.9995C9.62549 22.6207 9.12158 23.1242 8.50049 23.1245C7.87917 23.1245 7.37549 22.6208 7.37549 21.9995ZM14.3745 21.9995V18.9995C14.3748 18.3786 14.8786 17.8748 15.4995 17.8745C16.1207 17.8745 16.6242 18.3784 16.6245 18.9995V21.9995C16.6245 22.6208 16.1208 23.1245 15.4995 23.1245C14.8784 23.1242 14.3745 22.6207 14.3745 21.9995ZM1.875 17V11C1.875 10.3787 2.37868 9.875 3 9.875C3.62132 9.875 4.125 10.3787 4.125 11V17C4.125 17.6213 3.62132 18.125 3 18.125C2.37868 18.125 1.875 17.6213 1.875 17ZM19.875 17V11C19.875 10.3787 20.3787 9.875 21 9.875C21.6213 9.875 22.125 10.3787 22.125 11V17C22.125 17.6213 21.6213 18.125 21 18.125C20.3787 18.125 19.875 17.6213 19.875 17ZM7.2041 1.20459C7.61592 0.792773 8.26809 0.766738 8.70996 1.12695L8.79492 1.20459L11.0522 3.46191L11.1299 3.54687C11.4903 3.98874 11.4641 4.64084 11.0522 5.05273C10.6403 5.46441 9.98817 5.49078 9.54639 5.13037L9.46143 5.05273L7.2041 2.79541L7.12793 2.71045C6.76713 2.26866 6.79228 1.61666 7.2041 1.20459ZM15.2051 1.20459C15.6444 0.765492 16.3566 0.765329 16.7959 1.20459C17.2349 1.64387 17.2349 2.35613 16.7959 2.79541L14.5386 5.05273C14.0993 5.49198 13.3871 5.49183 12.9478 5.05273C12.5084 4.6134 12.5084 3.90125 12.9478 3.46191L15.2051 1.20459Z" fill="#888888"/>
<path d="M7.125 17.875H16.875V12.1255H7.125V17.875ZM12 5.125C9.34925 5.125 7.194 7.24066 7.12793 9.87549H16.8721C16.806 7.24066 14.6507 5.125 12 5.125ZM19.125 17.9995C19.125 19.1731 18.1731 20.125 16.9995 20.125H7.00049C5.82688 20.125 4.875 19.1731 4.875 17.9995V10C4.875 6.06497 8.06497 2.875 12 2.875C15.935 2.875 19.125 6.06497 19.125 10V17.9995Z" fill="#888888"/>
</svg>

<svg xmlns="http://www.w3.org/2000/svg" width="24" height="24" fill="none" viewBox="0 0 24 24">
  <path fill="#888" d="M7.375 22v-3a1.125 1.125 0 0 1 2.25 0v3a1.125 1.125 0 0 1-2.25 0Zm7 0v-3a1.126 1.126 0 0 1 2.25 0v3a1.125 1.125 0 0 1-2.25 0Zm-12.5-5v-6a1.125 1.125 0 0 1 2.25 0v6a1.125 1.125 0 0 1-2.25 0Zm18 0v-6a1.125 1.125 0 0 1 2.25 0v6a1.125 1.125 0 0 1-2.25 0ZM7.205 1.205a1.126 1.126 0 0 1 1.505-.078l.085.078 2.257 2.257.078.085A1.126 1.126 0 0 1 9.546 5.13l-.085-.077-2.257-2.258-.076-.085a1.125 1.125 0 0 1 .076-1.505Zm8 0a1.125 1.125 0 0 1 1.59 1.59L14.54 5.053a1.125 1.125 0 0 1-1.591-1.591l2.257-2.257Z"/>
  <path fill="#888" d="M7.125 17.875h9.75v-5.75h-9.75v5.75ZM12 5.125a4.874 4.874 0 0 0-4.872 4.75h9.744A4.874 4.874 0 0 0 12 5.125ZM19.125 18A2.126 2.126 0 0 1 17 20.125H7A2.126 2.126 0 0 1 4.875 18v-8a7.125 7.125 0 1 1 14.25 0v8Z"/>
</svg>
